svg/fluentui-system-icons/ic_fluent_book_arrow_clockwise_24_filled.svg

<svg width="24" height="24" viewBox="0 0 24 24" fill="none" xmlns="http://www.w3.org/2000/svg">
<path d="M22 4.25C22 4.66421 21.6642 5 21.25 5H18.5C18.0858 5 17.75 4.66421 17.75 4.25C17.75 3.83579 18.0858 3.5 18.5 3.5H19.8293L19.8217 3.49423L19.8121 3.48666C19.0416 2.86897 18.0649 2.5 17 2.5C14.5147 2.5 12.5 4.51472 12.5 7C12.5 9.48528 14.5147 11.5 17 11.5C19.4853 11.5 21.5 9.48528 21.5 7C21.5 6.58579 21.8358 6.25 22.25 6.25C22.6642 6.25 23 6.58579 23 7C23 10.3137 20.3137 13 17 13C13.6863 13 11 10.3137 11 7C11 3.68629 13.6863 1 17 1C18.3054 1 19.5149 1.41764 20.5 2.12612V1.5C20.5 1.32369 20.5608 1.16158 20.6627 1.03354C20.8001 0.860765 21.0121 0.75 21.25 0.75C21.6642 0.75 22 1.08579 22 1.5V4.25ZM12.101 2H6.5C5.11929 2 4 3.11929 4 4.5V19.5C4 20.8807 5.11929 22 6.5 22H19.75C20.1642 22 20.5 21.6642 20.5 21.25C20.5 20.8358 20.1642 20.5 19.75 20.5H6.5C5.94772 20.5 5.5 20.0523 5.5 19.5H19.75C20.1642 19.5 20.5 19.1642 20.5 18.75V13.0635C19.4704 13.6591 18.275 14 17 14C13.829 14 11.1504 11.8915 10.2899 9C10.2831 8.97735 10.2765 8.95464 10.27 8.93189C10.1832 8.62916 10.1164 8.31803 10.0709 8C10.0242 7.6734 10 7.33952 10 7C10 6.30503 10.1013 5.63371 10.2899 5C10.3926 4.65475 10.5213 4.32067 10.6736 4.00001C11.0297 3.2504 11.5151 2.57412 12.101 2Z" fill="#212121"/>
</svg>

<svg xmlns="http://www.w3.org/2000/svg" width="24" height="24"><path d="M22 4.25a.75.75 0 0 1-.75.75H18.5a.75.75 0 0 1 0-1.5h1.33l-.008-.006-.01-.007A4.5 4.5 0 1 0 21.5 7 .75.75 0 0 1 23 7a6 6 0 1 1-2.5-4.874V1.5a.746.746 0 0 1 .75-.75.75.75 0 0 1 .75.75v2.75ZM12.101 2H6.5A2.5 2.5 0 0 0 4 4.5v15A2.5 2.5 0 0 0 6.5 22h13.25a.75.75 0 0 0 0-1.5H6.5a1 1 0 0 1-1-1h14.25a.75.75 0 0 0 .75-.75v-5.687A7.003 7.003 0 0 1 10.07 8a7.062 7.062 0 0 1 .22-3 7.018 7.018 0 0 1 1.81-3Z"/></svg>
